packages/katcn/src/icons/svg/wordFile.svg

<svg width="24" height="25" viewBox="0 0 24 25" fill="none" xmlns="http://www.w3.org/2000/svg">
<path fill-rule="evenodd" clip-rule="evenodd" d="M4 5.68809C4 3.88644 5.40423 2.28809 7.31339 2.28809H12.3425C13.3927 2.28809 14.4567 2.67989 15.2604 3.47893L15.2701 3.48859L18.8866 7.18414C19.6883 7.98458 20.0956 9.15706 19.9809 10.2452V18.8881C19.9809 20.6897 18.5767 22.2881 16.6675 22.2881H7.31339C5.40423 22.2881 4 20.6897 4 18.8881V5.68809ZM7.31339 4.28809C6.60742 4.28809 6 4.88974 6 5.68809V18.8881C6 19.6864 6.60742 20.2881 7.31339 20.2881H16.6675C17.3735 20.2881 17.9809 19.6864 17.9809 18.8881V10.1881C17.9809 10.1464 17.9835 10.1047 17.9888 10.0633C18.0504 9.57265 17.8563 8.98011 17.4712 8.59724L17.4615 8.58758L13.8459 4.89292C13.443 4.49478 12.8996 4.28809 12.3425 4.28809H7.31339Z" fill="black"/>
<path fill-rule="evenodd" clip-rule="evenodd" d="M8 14.2881C8 13.7358 8.44772 13.2881 9 13.2881H15C15.5523 13.2881 16 13.7358 16 14.2881C16 14.8404 15.5523 15.2881 15 15.2881H9C8.44772 15.2881 8 14.8404 8 14.2881Z" fill="black"/>
<path fill-rule="evenodd" clip-rule="evenodd" d="M8 17.2881C8 16.7358 8.44772 16.2881 9 16.2881H12C12.5523 16.2881 13 16.7358 13 17.2881C13 17.8404 12.5523 18.2881 12 18.2881H9C8.44772 18.2881 8 17.8404 8 17.2881Z" fill="black"/>
</svg>

<svg xmlns="http://www.w3.org/2000/svg" fill="none" viewBox="0 0 24 25"><path fill="#000" fill-rule="evenodd" d="M4 5.688c0-1.802 1.404-3.4 3.313-3.4h5.03a4.13 4.13 0 0 1 2.917 1.19l.01.01 3.617 3.696a3.85 3.85 0 0 1 1.094 3.061v8.643c0 1.802-1.404 3.4-3.314 3.4H7.314c-1.91 0-3.314-1.598-3.314-3.4zm3.313-1.4C6.607 4.288 6 4.89 6 5.688v13.2c0 .798.607 1.4 1.313 1.4h9.355c.706 0 1.313-.602 1.313-1.4v-8.7q0-.062.008-.125c.061-.49-.133-1.083-.518-1.466l-.01-.01-3.615-3.694a2.13 2.13 0 0 0-1.504-.605z" clip-rule="evenodd"/><path fill="#000" fill-rule="evenodd" d="M8 14.288a1 1 0 0 1 1-1h6a1 1 0 1 1 0 2H9a1 1 0 0 1-1-1m0 3a1 1 0 0 1 1-1h3a1 1 0 1 1 0 2H9a1 1 0 0 1-1-1" clip-rule="evenodd"/></svg>
